images/heart.svg

<svg width="29" height="25" viewBox="0 0 29 25" fill="none" xmlns="http://www.w3.org/2000/svg">
<path d="M26.2656 1.94531C23.2578 -0.570312 18.8281 -0.1875 16.0391 2.71094L15 3.80469L13.9062 2.71094C11.6641 0.414062 7.17969 -1.00781 3.67969 1.94531C0.234375 4.89844 0.0703125 10.1484 3.13281 13.3203L13.7422 24.2578C14.0703 24.5859 14.5078 24.75 14.9453 24.75C15.4375 24.75 15.875 24.5859 16.2031 24.2578L26.8125 13.3203C29.875 10.1484 29.7109 4.89844 26.2656 1.94531ZM25.5547 12.1172L15 23.0547L4.39062 12.1172C2.3125 9.92969 1.875 5.82812 4.82812 3.3125C7.83594 0.742188 11.3359 2.60156 12.6484 3.91406L15 6.32031L17.2969 3.91406C18.5547 2.60156 22.1094 0.742188 25.1172 3.3125C28.0703 5.82812 27.6328 9.92969 25.5547 12.1172Z" fill="#FF5555"/>
</svg>

<svg width="29" height="25" fill="none" xmlns="http://www.w3.org/2000/svg"><path d="M26.266 1.945c-3.008-2.515-7.438-2.133-10.227.766L15 3.805 13.906 2.71C11.664.414 7.18-1.008 3.68 1.945.234 4.898.07 10.148 3.133 13.32l10.61 10.938c.327.328.765.492 1.202.492.492 0 .93-.164 1.258-.492l10.61-10.938c3.062-3.172 2.898-8.422-.547-11.375zm-.711 10.172L15 23.055 4.39 12.117c-2.077-2.187-2.515-6.289.438-8.805 3.008-2.57 6.508-.71 7.82.602L15 6.32l2.297-2.406c1.258-1.312 4.812-3.172 7.82-.602 2.953 2.516 2.516 6.618.438 8.805z" fill="#F55"/></svg>
